X:1
T:Title
%%score { 1 | 2 } 3
L:1/8
M:6/4
K:F
V:1 treble nm="Synth Voice, Staff"
V:2 treble 
V:3 treble nm="Grand Piano, Staff-1"
V:1
 FE F2 D2 B6 | AA G2 G2 .F6 | EF G2 G2 FG A2 A2 | BA G2 G2 FG A2 A2 | BA G2 G2 c6 | BA G2 G2 .F6 |] %6
w: By~pola~tradicia~melodio * * * *||||||
V:2
 z12 | z12 | CD E2 E2 A,C F2 F2 | GF E2 C2 A,C F2 F2 | B,A, B,2 B,2 A,6 | B,[K:treble]C D2 E2 z6 |] %6
V:3
 FE F2 D2 B6 | AA G2 G2 .F6 | [CE][DF] [G,CE]4- [G,CE]3/2 z/ [A,CF]4- | %3
 [A,CF]2 [G,CE]4- [G,CE]3/2 z/ [A,CF]4- | [A,CF]2 [G,B,D]4 [A,CF]4 [A,^CE]2- | %5
 [A,CE]2 [G,B,=CE]4 .[A,CF]6 |] %6

